X: 100
T: Condon's frolics
C: anon.
O: Ireland
B: Francis O'Neill: "The Dance Music of Ireland" (1907) no. 100
R: Double jig
Z: Transcribed by Frank Nordberg - http://www.musicaviva.com
F: http://www.musicaviva.com/abc/tunes/ireland/oneill-1001/oneill-1001-010
0.abc
M: 6/8
L: 1/8
K: Ador
g|ecA c2d|edc BAG|ABA c2d|ede efg|ecA c2d|edc BAG|ABA gfg|ecA A2:|
|:e|eaa efg|dec BAG|cBc dcd|efe e z d|eaa efg|dec BAG|ABA gfg|ecA A2:|
W:
W:
W: From Musica Viva - http://www.musicaviva.com
W: the Internet center for free sheet music downloads.


